X:1
T:What's a' the Steer, Kimmer?
M:C
L:1/8
R:Air or Strathspey
B:Davie's Caledonian Repository (Aberdeen, 1829-30, p. 24)
Z:AK/Fiddler’s Companion
K:A
B|c2 c>B c>Bc<e|c2 c>B c3e|e>fe>c f2 ec|e>fe>c {c}B2 zc|
A>FE>F A2 c>B|A>FE>F A3B|c>de>c f2 A>f|e<cc>B A3||
P:Variation
c|e2 e>c e>ce<a|e2 e>c e3f|e<ae<c e<ae<c|f<ae<c B2 c>B|
A>BA>F A<dc>B|A>BA>F A2 A>B|c<ef>e a>ba>f|e<cc>B A3||

